src/basic/500/u27F6-longarrow.svg

<svg width="46" height="28" viewBox="0 0 46 28" fill="none" xmlns="http://www.w3.org/2000/svg">
<path fill-rule="evenodd" clip-rule="evenodd" d="M43.3049,14.9837l-7.1584,-7.15843l0.7071,-0.70711l8,8.00004l0.3496,0.3496l-0.3458,0.3535l-8,8.1787l-0.7148,-0.6993l7.1572,-7.317h-43.2998v-1z" fill="black"/>
</svg>

<svg width="46" height="28" viewBox="0 0 46 28" fill="none" xmlns="http://www.w3.org/2000/svg">
<path fill-rule="evenodd" clip-rule="evenodd" d="M43.3049 14.9837L36.1465 7.82527L36.8536 7.11816L44.8536 15.1182L45.2032 15.4678L44.8574 15.8213L36.8574 24L36.1426 23.3007L43.2998 15.9837H0V14.9837H43.3049Z" fill="black"/>
</svg>
